fs/branch_fork_link_24_filled.svg

<svg viewBox="0 0 24 24" fill="none" xmlns="http://www.w3.org/2000/svg" height="1em" width="1em">
  <path d="M6 8.96456C7.69615 8.72194 9 7.26324 9 5.5C9 3.567 7.433 2 5.5 2C3.567 2 2 3.567 2 5.5C2 7.08551 3.05426 8.42479 4.5 8.85506V15.1449C3.05426 15.5752 2 16.9145 2 18.5C2 20.433 3.567 22 5.5 22C7.433 22 9 20.433 9 18.5C9 16.7368 7.69615 15.2781 6 15.0354V13H12.25C14.3211 13 16 11.3211 16 9.25V8.96456C17.6961 8.72194 19 7.26324 19 5.5C19 3.567 17.433 2 15.5 2C13.567 2 12 3.567 12 5.5C12 7.08551 13.0543 8.42479 14.5 8.85506V9.25C14.5 10.4926 13.4926 11.5 12.25 11.5H6V8.96456ZM23 18.75C23 16.6789 21.3211 15 19.25 15L19.1482 15.0068C18.7822 15.0565 18.5 15.3703 18.5 15.75C18.5 16.1642 18.8358 16.5 19.25 16.5L19.404 16.5052C20.5748 16.5844 21.5 17.5591 21.5 18.75C21.5 19.9926 20.4926 21 19.25 21L19.2466 21.0046L19.1448 21.0119C18.779 21.0633 18.4983 21.3783 18.5 21.758C18.5019 22.1722 18.8392 22.5065 19.2534 22.5046V22.5L19.4523 22.4948C21.4276 22.3913 23 20.7543 23 18.75ZM16.5 15.75C16.5 15.3358 16.1642 15 15.75 15L15.5508 15.0052C13.5724 15.1087 12 16.7457 12 18.75C12 20.8211 13.6789 22.5 15.75 22.5L15.8518 22.4932C16.2178 22.4435 16.5 22.1297 16.5 21.75C16.5 21.3358 16.1642 21 15.75 21L15.596 20.9948C14.4252 20.9156 13.5 19.9409 13.5 18.75C13.5 17.5074 14.5074 16.5 15.75 16.5L15.8518 16.4932C16.2178 16.4435 16.5 16.1297 16.5 15.75ZM20 18.75C20 18.3358 19.6642 18 19.25 18H15.75L15.6482 18.0068C15.2822 18.0565 15 18.3703 15 18.75C15 19.1642 15.3358 19.5 15.75 19.5H19.25L19.3518 19.4932C19.7178 19.4435 20 19.1297 20 18.75Z" fill="#212121"/>
</svg>

<svg viewBox="0 0 24 24" fill="none" xmlns="http://www.w3.org/2000/svg" height="1em" width="1em">
  <path d="M6 8.965a3.5 3.5 0 1 0-1.5-.11v6.29A3.502 3.502 0 0 0 5.5 22a3.5 3.5 0 0 0 .5-6.965V13h6.25A3.75 3.75 0 0 0 16 9.25v-.285a3.5 3.5 0 1 0-1.5-.11v.395a2.25 2.25 0 0 1-2.25 2.25H6V8.965Zm17 9.785A3.75 3.75 0 0 0 19.25 15l-.102.007a.75.75 0 0 0 .102 1.493l.154.005A2.25 2.25 0 0 1 19.25 21l-.003.005-.102.007a.75.75 0 0 0 .108 1.493V22.5l.2-.005A3.75 3.75 0 0 0 23 18.75Zm-6.5-3a.75.75 0 0 0-.75-.75l-.2.005a3.75 3.75 0 0 0 .2 7.495l.102-.007A.75.75 0 0 0 15.75 21l-.154-.005a2.25 2.25 0 0 1 .154-4.495l.102-.007a.75.75 0 0 0 .648-.743Zm3.5 3a.75.75 0 0 0-.75-.75h-3.5l-.102.007a.75.75 0 0 0 .102 1.493h3.5l.102-.007A.75.75 0 0 0 20 18.75Z" fill="#212121"/>
</svg>
